output/shapes-clean/Composition/11.svg

<?xml version='1.0' encoding='UTF-8'?>
<svg xmlns="http://www.w3.org/2000/svg" width="200" height="200" viewBox="0 0 200 200">
<g clip-path="url(#clip0_81_2191)">
<rect width="200" height="200" transform="translate(200 8.74228e-06) rotate(90)" fill="#121212"/>
<path d="M200 2.18557e-06C200 82.8427 200 150 200 150C117.157 150 50 82.8427 50 8.74228e-06C50 8.74228e-06 117.157 5.80674e-06 200 2.18557e-06Z" fill="#F3F3F3"/>
<path fill-rule="evenodd" clip-rule="evenodd" d="M200 1.5299e-05L125 8.74228e-06C125 23.9875 136.261 45.3448 153.785 59.0736C155.31 60.2684 154.568 62.8436 152.631 62.9089C142.53 63.2496 131.501 63.375 122.484 63.4775C121.637 63.4871 120.809 63.4965 120 63.5059C90.0001 63.5059 90 69.4999 90 71.9999C90 72.0173 90.0053 72.0343 90.0158 72.0512C90.0053 72.068 90 72.0851 90 72.1023C90 74.5826 90.0001 80.5294 120 80.5294C120.809 80.5387 121.637 80.5481 122.484 80.5576C145.591 80.8182 181.9 81.2276 182 84.9999H200V75L200 71.9999V59L200 1.5299e-05Z" fill="#121212"/>
<path fill-rule="evenodd" clip-rule="evenodd" d="M182 177C181.899 183.727 145.591 184.457 122.484 184.922C121.637 184.939 120.809 184.955 120 184.972C90.0001 184.972 90 200 90 200H200V177H182Z" fill="#121212"/>
<path fill-rule="evenodd" clip-rule="evenodd" d="M182 131C181.899 137.727 145.591 138.457 122.484 138.922C121.637 138.939 120.809 138.955 120 138.972C90.0001 138.972 90 154 90 154H200V131H182Z" fill="#121212"/>
<path fill-rule="evenodd" clip-rule="evenodd" d="M182 85C181.899 91.727 145.591 92.4571 122.484 92.9218C121.637 92.9388 120.809 92.9555 120 92.9721C90.0001 92.9721 90 108 90 108H200V85H182Z" fill="#121212"/>
<path fill-rule="evenodd" clip-rule="evenodd" d="M182 131C181.899 124.273 145.591 123.543 122.484 123.078C121.637 123.061 120.809 123.045 120 123.028C90.0001 123.028 90 108 90 108H200V131H182Z" fill="#121212"/>
<path fill-rule="evenodd" clip-rule="evenodd" d="M182 177C181.899 170.273 145.591 169.543 122.484 169.078C121.637 169.061 120.809 169.045 120 169.028C90.0001 169.028 90 154 90 154H200V177H182Z" fill="#121212"/>
</g>
<defs>
<clipPath id="clip0_81_2191">
<rect width="200" height="200" fill="#FFFFFF" transform="translate(200 8.74228e-06) rotate(90)"/>
</clipPath>
</defs>
</svg>

<?xml version="1.0" encoding="UTF-8"?>
<svg id="Layer_1" xmlns="http://www.w3.org/2000/svg" version="1.1" viewBox="0 0 200 200">
  <!-- Generator: Adobe Illustrator 30.2.1, SVG Export Plug-In . SVG Version: 2.1.1 Build 1)  -->
  <defs>
    <style>
      .st0 {
        fill: #121212;
        fill-rule: evenodd;
      }
    </style>
  </defs>
  <path class="st0" d="M125,0c0,23.99,11.26,45.34,28.79,59.07,1.52,1.2.78,3.77-1.16,3.84-10.1.34-21.13.47-30.15.57-.84.01-1.67.02-2.48.03-30,0-30,5.99-30,8.49,0,.02.01.03.02.05-.01.02-.02.04-.02.05,0,2.48,0,8.43,30,8.43.81,0,1.64.02,2.48.03,23.11.26,59.42.67,59.52,4.44-.1,6.73-36.41,7.46-59.52,7.92-.84.02-1.67.04-2.48.05-19.11,0-26.04,6.1-28.57,10.52C65.76,76.57,50,40.13,50,0H0v200h200V0h-75ZM142.1,138.41c-10.02-4.19-19.48-9.44-28.25-15.61,1.89.15,3.94.23,6.15.23.81,0,1.64.03,2.48.05,23.11.46,59.42,1.19,59.52,7.92-.07,5-20.12,6.69-39.9,7.41Z"/>
</svg>
